static/logos/protopie-glyph-color.svg

<svg width="50" height="50" viewBox="0 0 50 50" fill="none" xmlns="http://www.w3.org/2000/svg">
<path d="M32.2326 1.19048H18.8067C9.07589 1.19048 1.1875 9.05755 1.1875 18.762V32.1517C1.1875 41.8562 9.07589 49.7232 18.8067 49.7232H32.2326C41.9635 49.7232 49.8518 41.8562 49.8518 32.1517V18.762C49.8518 9.05755 41.9635 1.19048 32.2326 1.19048Z" fill="url(#paint0_linear_1_1439)" stroke="#D8DBE3" stroke-width="0.170081"/>
<path fill-rule="evenodd" clip-rule="evenodd" d="M25.5737 37.1599V42.0385C24.7655 42.0385 24.0323 41.7177 23.4931 41.1981C23.4912 41.1981 23.4912 41.1981 23.4912 41.1964L23.0873 40.7152L9.85973 25.0137C9.85107 25.0096 9.84482 25.001 9.84034 24.9922L9.78694 24.9305C9.78278 24.926 9.78035 24.9218 9.77653 24.9174C9.71206 24.83 9.65657 24.7358 9.62018 24.6331C9.57096 24.5113 9.54323 24.3788 9.53906 24.242V24.1608C9.53906 24.1352 9.54113 24.1092 9.54565 24.0836C9.56887 23.8145 9.68431 23.5747 9.85973 23.3867C10.0757 23.1537 10.3877 23.0063 10.7316 23.0063H13.6462L25.5716 37.1619L25.5737 37.1599Z" fill="url(#paint1_linear_1_1439)"/>
<path fill-rule="evenodd" clip-rule="evenodd" d="M25.5737 37.1599V42.0385C24.7655 42.0385 24.0323 41.7177 23.4931 41.1981C23.4912 41.1981 23.4912 41.1981 23.4912 41.1964L23.0873 40.7152L9.85973 25.0137C9.85107 25.0096 9.84482 25.001 9.84034 24.9922L9.78694 24.9305C9.78278 24.926 9.78035 24.9218 9.77653 24.9174C9.71206 24.83 9.65657 24.7358 9.62018 24.6331C9.57096 24.5113 9.54323 24.3788 9.53906 24.242V24.1608C9.53906 24.1352 9.54113 24.1092 9.54565 24.0836C9.56887 23.8145 9.68431 23.5747 9.85973 23.3867C10.0757 23.1537 10.3877 23.0063 10.7316 23.0063H13.6462L25.5716 37.1619L25.5737 37.1599Z" fill="url(#paint2_linear_1_1439)"/>
<path fill-rule="evenodd" clip-rule="evenodd" d="M25.5737 37.1599V42.0385C24.7655 42.0385 24.0323 41.7177 23.4931 41.1981C23.4912 41.1981 23.4912 41.1981 23.4912 41.1964L23.0873 40.7152L13.2184 29.0012L9.85973 25.0137C9.85107 25.0096 9.84482 25.001 9.84034 24.9922L9.78694 24.9305C9.78278 24.926 9.78035 24.9218 9.77653 24.9174C9.71206 24.83 9.65657 24.7358 9.62018 24.6331C9.57096 24.5113 9.54323 24.3788 9.53906 24.242V24.1608C9.53906 24.1352 9.54113 24.1092 9.54565 24.0836C9.56887 23.8145 9.68431 23.5747 9.85973 23.3867C10.0757 23.1537 10.3877 23.0063 10.7316 23.0063H13.6462L15.0166 24.6331L18.6959 29.0012L24.7289 36.1614L25.5716 37.1619L25.5737 37.1599Z" fill="url(#paint3_linear_1_1439)" fill-opacity="0.4"/>
<path fill-rule="evenodd" clip-rule="evenodd" d="M25.5737 30.6793V37.193L25.5716 37.1951L9.83755 18.5695C9.82161 18.5518 9.80566 18.5318 9.78972 18.5114C9.71969 18.4219 9.66144 18.3219 9.61913 18.2115C9.5713 18.0899 9.54323 17.9577 9.53906 17.818V17.7379C9.54703 17.4401 9.66735 17.1721 9.85973 16.9684C10.0743 16.7323 10.3867 16.5863 10.7316 16.5863H13.6701L25.5737 30.6793Z" fill="url(#paint4_linear_1_1439)"/>
<path fill-rule="evenodd" clip-rule="evenodd" d="M25.5737 30.6793V37.193L25.5716 37.1951L9.83755 18.5695C9.82161 18.5518 9.80566 18.5318 9.78972 18.5114C9.71969 18.4219 9.66144 18.3219 9.61913 18.2115C9.5713 18.0899 9.54323 17.9577 9.53906 17.818V17.7379C9.54703 17.4401 9.66735 17.1721 9.85973 16.9684C10.0743 16.7323 10.3867 16.5863 10.7316 16.5863H13.6701L25.5737 30.6793Z" fill="url(#paint5_linear_1_1439)"/>
<path fill-rule="evenodd" clip-rule="evenodd" d="M25.5737 30.6793V37.193L25.5716 37.1951L24.7299 36.1973L18.6968 29.0561L15.017 24.6995L13.6462 23.0761L9.83755 18.5695C9.82161 18.5518 9.80566 18.5318 9.78972 18.5114C9.71969 18.4219 9.66144 18.3219 9.61913 18.2115C9.5713 18.0899 9.54323 17.9577 9.53906 17.818V17.7379C9.54703 17.4401 9.66735 17.1721 9.85973 16.9684C10.0743 16.7323 10.3867 16.5863 10.7316 16.5863H13.6701L15.0429 18.2115L19.1521 23.0761L20.5228 24.6995L24.2028 29.0561L25.5737 30.6793Z" fill="url(#paint6_linear_1_1439)" fill-opacity="0.3"/>
<path fill-rule="evenodd" clip-rule="evenodd" d="M10.677 10.0551C10.3334 10.0551 10.0186 10.1997 9.80508 10.4365C9.61267 10.637 9.49305 10.9098 9.48438 11.2065V11.2853C9.4882 11.426 9.51592 11.5581 9.56551 11.6795C9.56759 11.6902 9.57209 11.6988 9.57591 11.7095C9.61474 11.8012 9.66364 11.8862 9.72568 11.9655C9.74683 11.9955 9.77074 12.0232 9.79641 12.0485C9.80055 12.055 9.8068 12.0612 9.8134 12.0677L25.5188 30.6585V42.038C25.594 42.038 25.6669 42.036 25.7393 42.0296C26.4597 41.9789 27.1097 41.6716 27.5993 41.2002C27.6016 41.2002 27.6016 41.2002 27.6016 41.1977L28.0057 40.7183L41.2526 25.0358C41.2696 25.0189 41.2846 24.9995 41.2997 24.9805C41.3724 24.8908 41.43 24.7902 41.4725 24.6796C41.5262 24.5475 41.5539 24.4027 41.5539 24.2488V11.2449C41.5539 10.9313 41.4319 10.6433 41.2313 10.4344C41.0152 10.1997 40.705 10.0551 40.3587 10.0551H10.677Z" fill="url(#paint7_linear_1_1439)"/>
<path fill-rule="evenodd" clip-rule="evenodd" d="M10.677 10.0551C10.3334 10.0551 10.0186 10.1997 9.80508 10.4365C9.61267 10.637 9.49305 10.9098 9.48438 11.2065V11.2853C9.4882 11.426 9.51592 11.5581 9.56551 11.6795C9.56759 11.6902 9.57209 11.6988 9.57591 11.7095C9.61474 11.8012 9.66364 11.8862 9.72568 11.9655C9.74683 11.9955 9.77074 12.0232 9.79641 12.0485C9.80055 12.055 9.8068 12.0612 9.8134 12.0677L25.5188 30.6585V42.038C25.594 42.038 25.6669 42.036 25.7393 42.0296C26.4597 41.9789 27.1097 41.6716 27.5993 41.2002C27.6016 41.2002 27.6016 41.2002 27.6016 41.1977L28.0057 40.7183L41.2526 25.0358C41.2696 25.0189 41.2846 24.9995 41.2997 24.9805C41.3724 24.8908 41.43 24.7902 41.4725 24.6796C41.5262 24.5475 41.5539 24.4027 41.5539 24.2488V11.2449C41.5539 10.9313 41.4319 10.6433 41.2313 10.4344C41.0152 10.1997 40.705 10.0551 40.3587 10.0551H10.677Z" fill="url(#paint8_linear_1_1439)"/>
<path fill-rule="evenodd" clip-rule="evenodd" d="M10.677 10.0551C10.3334 10.0551 10.0186 10.1997 9.80508 10.4365C9.61267 10.637 9.49305 10.9098 9.48438 11.2065V11.2853C9.4882 11.426 9.51592 11.5581 9.56551 11.6795C9.56759 11.6902 9.57209 11.6988 9.57591 11.7095C9.61474 11.8012 9.66364 11.8862 9.72568 11.9655C9.74683 11.9955 9.77074 12.0232 9.79641 12.0485C9.80055 12.055 9.8068 12.0612 9.8134 12.0677L25.5188 30.6585V42.038C25.594 42.038 25.6669 42.036 25.7393 42.0296C26.4597 41.9789 27.1097 41.6716 27.5993 41.2002C27.6016 41.2002 27.6016 41.2002 27.6016 41.1977L28.0057 40.7183L41.2526 25.0358C41.2696 25.0189 41.2846 24.9995 41.2997 24.9805C41.3724 24.8908 41.43 24.7902 41.4725 24.6796C41.5262 24.5475 41.5539 24.4027 41.5539 24.2488V11.2449C41.5539 10.9313 41.4319 10.6433 41.2313 10.4344C41.0152 10.1997 40.705 10.0551 40.3587 10.0551H10.677Z" fill="url(#paint9_linear_1_1439)"/>
<path fill-rule="evenodd" clip-rule="evenodd" d="M10.677 10.0551C10.3334 10.0551 10.0186 10.1997 9.80508 10.4365C9.61267 10.637 9.49305 10.9098 9.48438 11.2065V11.2853C9.4882 11.426 9.51592 11.5581 9.56551 11.6795C9.56759 11.6902 9.57209 11.6988 9.57591 11.7095C9.61474 11.8012 9.66364 11.8862 9.72568 11.9655C9.74683 11.9955 9.77074 12.0232 9.79641 12.0485C9.80055 12.055 9.8068 12.0612 9.8134 12.0677L25.5188 30.6585V42.038C25.594 42.038 25.6669 42.036 25.7393 42.0296C26.4597 41.9789 27.1097 41.6716 27.5993 41.2002C27.6016 41.2002 27.6016 41.2002 27.6016 41.1977L28.0057 40.7183L41.2526 25.0358C41.2696 25.0189 41.2846 24.9995 41.2997 24.9805C41.3724 24.8908 41.43 24.7902 41.4725 24.6796C41.5262 24.5475 41.5539 24.4027 41.5539 24.2488V11.2449C41.5539 10.9313 41.4319 10.6433 41.2313 10.4344C41.0152 10.1997 40.705 10.0551 40.3587 10.0551H10.677Z" fill="url(#paint10_linear_1_1439)"/>
<path fill-rule="evenodd" clip-rule="evenodd" d="M10.677 10.0551C10.3334 10.0551 10.0186 10.1997 9.80508 10.4365C9.61267 10.637 9.49305 10.9098 9.48438 11.2065V11.2853C9.4882 11.426 9.51592 11.5581 9.56551 11.6795C9.56759 11.6902 9.57209 11.6988 9.57591 11.7095C9.61474 11.8012 9.66364 11.8862 9.72568 11.9655C9.74683 11.9955 9.77074 12.0232 9.79641 12.0485C9.80055 12.055 9.8068 12.0612 9.8134 12.0677L25.5188 30.6585V42.038C25.594 42.038 25.6669 42.036 25.7393 42.0296C26.4597 41.9789 27.1097 41.6716 27.5993 41.2002C27.6016 41.2002 27.6016 41.2002 27.6016 41.1977L28.0057 40.7183L41.2526 25.0358C41.2696 25.0189 41.2846 24.9995 41.2997 24.9805C41.3724 24.8908 41.43 24.7902 41.4725 24.6796C41.5262 24.5475 41.5539 24.4027 41.5539 24.2488V11.2449C41.5539 10.9313 41.4319 10.6433 41.2313 10.4344C41.0152 10.1997 40.705 10.0551 40.3587 10.0551H10.677Z" fill="url(#paint11_linear_1_1439)"/>
<path fill-rule="evenodd" clip-rule="evenodd" d="M10.677 10.0551C10.3334 10.0551 10.0186 10.1997 9.80508 10.4365C9.61267 10.637 9.49305 10.9098 9.48438 11.2065V11.2853C9.4882 11.426 9.51592 11.5581 9.56551 11.6795C9.56759 11.6902 9.57209 11.6988 9.57591 11.7095C9.61474 11.8012 9.66364 11.8862 9.72568 11.9655C9.74683 11.9955 9.77074 12.0232 9.79641 12.0485C9.80055 12.055 9.8068 12.0612 9.8134 12.0677L25.5188 30.6585V42.038C25.594 42.038 25.6669 42.036 25.7393 42.0296C26.4597 41.9789 27.1097 41.6716 27.5993 41.2002C27.6016 41.2002 27.6016 41.2002 27.6016 41.1977L28.0057 40.7183L41.2526 25.0358C41.2696 25.0189 41.2846 24.9995 41.2997 24.9805C41.3724 24.8908 41.43 24.7902 41.4725 24.6796C41.5262 24.5475 41.5539 24.4027 41.5539 24.2488V11.2449C41.5539 10.9313 41.4319 10.6433 41.2313 10.4344C41.0152 10.1997 40.705 10.0551 40.3587 10.0551H10.677Z" fill="url(#paint12_linear_1_1439)"/>
<defs>
<linearGradient id="paint0_linear_1_1439" x1="25.5196" y1="1.05212" x2="25.5196" y2="49.8617" gradientUnits="userSpaceOnUse">
<stop stop-color="white"/>
<stop offset="1" stop-color="#F6F8FC"/>
</linearGradient>
<linearGradient id="paint1_linear_1_1439" x1="19.1687" y1="28.5152" x2="16.3852" y2="30.7054" gradientUnits="userSpaceOnUse">
<stop stop-color="#FFA794" stop-opacity="0.3"/>
<stop offset="1" stop-color="#FF9794"/>
</linearGradient>
<linearGradient id="paint2_linear_1_1439" x1="19.1687" y1="28.5152" x2="16.3852" y2="30.7054" gradientUnits="userSpaceOnUse">
<stop stop-color="#FFA794" stop-opacity="0.3"/>
<stop offset="1" stop-color="#FF9794"/>
</linearGradient>
<linearGradient id="paint3_linear_1_1439" x1="18.9311" y1="35.5825" x2="21.9154" y2="32.9086" gradientUnits="userSpaceOnUse">
<stop stop-color="#FFDFD7"/>
<stop offset="1" stop-color="#FFDFD7"/>
</linearGradient>
<linearGradient id="paint4_linear_1_1439" x1="19.1687" y1="22.5515" x2="16.0841" y2="25.6406" gradientUnits="userSpaceOnUse">
<stop stop-color="#FFA794" stop-opacity="0.3"/>
<stop offset="1" stop-color="#FF9794"/>
</linearGradient>
<linearGradient id="paint5_linear_1_1439" x1="19.1687" y1="22.5515" x2="16.0841" y2="25.6406" gradientUnits="userSpaceOnUse">
<stop stop-color="#FFA794" stop-opacity="0.3"/>
<stop offset="1" stop-color="#FF9794"/>
</linearGradient>
<linearGradient id="paint6_linear_1_1439" x1="19.822" y1="30.0734" x2="22.9609" y2="26.8667" gradientUnits="userSpaceOnUse">
<stop stop-color="#FFA694"/>
<stop offset="1" stop-color="#FFB7A9"/>
</linearGradient>
<linearGradient id="paint7_linear_1_1439" x1="35.9715" y1="31.4363" x2="14.3329" y2="16.5149" gradientUnits="userSpaceOnUse">
<stop stop-color="#FF6661"/>
<stop offset="1" stop-color="#FF7D73"/>
</linearGradient>
<linearGradient id="paint8_linear_1_1439" x1="35.9715" y1="31.4363" x2="14.3329" y2="16.5149" gradientUnits="userSpaceOnUse">
<stop stop-color="#FF6661"/>
<stop offset="1" stop-color="#FF7D73"/>
</linearGradient>
<linearGradient id="paint9_linear_1_1439" x1="35.9715" y1="31.4363" x2="14.3329" y2="16.5149" gradientUnits="userSpaceOnUse">
<stop stop-color="#FF6661"/>
<stop offset="1" stop-color="#FF7D73"/>
</linearGradient>
<linearGradient id="paint10_linear_1_1439" x1="35.9715" y1="31.4363" x2="14.3329" y2="16.5149" gradientUnits="userSpaceOnUse">
<stop stop-color="#FF6661"/>
<stop offset="1" stop-color="#FF7D73"/>
</linearGradient>
<linearGradient id="paint11_linear_1_1439" x1="35.9715" y1="31.4363" x2="14.3329" y2="16.5149" gradientUnits="userSpaceOnUse">
<stop stop-color="#FF6661"/>
<stop offset="1" stop-color="#FF7D73"/>
</linearGradient>
<linearGradient id="paint12_linear_1_1439" x1="35.9715" y1="31.4363" x2="14.3329" y2="16.5149" gradientUnits="userSpaceOnUse">
<stop stop-color="#FF6661"/>
<stop offset="1" stop-color="#FF7D73"/>
</linearGradient>
</defs>
</svg>

<svg xmlns="http://www.w3.org/2000/svg" width="64" height="64" fill="none" viewBox="0 0 50 50"><path fill="url(#a)" stroke="#D8DBE3" stroke-width=".17" d="M32.233 1.19H18.807c-9.731 0-17.62 7.868-17.62 17.572v13.39c0 9.704 7.889 17.571 17.62 17.571h13.426c9.73 0 17.619-7.867 17.619-17.571v-13.39c0-9.704-7.888-17.572-17.62-17.572Z"/><path fill="url(#b)" fill-rule="evenodd" d="M25.574 37.16v4.879a2.99 2.99 0 0 1-2.08-.84c-.003 0-.003 0-.003-.003l-.404-.48L9.86 25.013a.046.046 0 0 1-.02-.022l-.053-.062-.01-.013a1.103 1.103 0 0 1-.157-.284 1.136 1.136 0 0 1-.08-.391v-.081a1.164 1.164 0 0 1 .32-.774c.216-.233.528-.38.872-.38h2.914l11.926 14.155.002-.002Z" clip-rule="evenodd"/><path fill="url(#c)" fill-rule="evenodd" d="M25.574 37.16v4.879a2.99 2.99 0 0 1-2.08-.84c-.003 0-.003 0-.003-.003l-.404-.48L9.86 25.013a.046.046 0 0 1-.02-.022l-.053-.062-.01-.013a1.103 1.103 0 0 1-.157-.284 1.136 1.136 0 0 1-.08-.391v-.081a1.164 1.164 0 0 1 .32-.774c.216-.233.528-.38.872-.38h2.914l11.926 14.155.002-.002Z" clip-rule="evenodd"/><path fill="url(#d)" fill-opacity=".4" fill-rule="evenodd" d="M25.574 37.16v4.879a2.99 2.99 0 0 1-2.08-.84c-.003 0-.003 0-.003-.003l-.404-.48L13.218 29 9.86 25.014a.046.046 0 0 1-.02-.022l-.053-.062-.01-.013a1.103 1.103 0 0 1-.157-.284 1.136 1.136 0 0 1-.08-.391v-.081a1.164 1.164 0 0 1 .32-.774c.216-.233.528-.38.872-.38h2.914l1.37 1.626 3.68 4.368 6.033 7.16.843 1 .002-.001Z" clip-rule="evenodd"/><path fill="url(#e)" fill-rule="evenodd" d="M25.574 30.68v6.513l-.002.002L9.838 18.57a1.159 1.159 0 0 1-.218-.358 1.167 1.167 0 0 1-.08-.394v-.08a1.16 1.16 0 0 1 .32-.77c.214-.236.527-.382.872-.382h2.938L25.574 30.68Z" clip-rule="evenodd"/><path fill="url(#f)" fill-rule="evenodd" d="M25.574 30.68v6.513l-.002.002L9.838 18.57a1.159 1.159 0 0 1-.218-.358 1.167 1.167 0 0 1-.08-.394v-.08a1.16 1.16 0 0 1 .32-.77c.214-.236.527-.382.872-.382h2.938L25.574 30.68Z" clip-rule="evenodd"/><path fill="url(#g)" fill-opacity=".3" fill-rule="evenodd" d="M25.574 30.68v6.513l-.002.002-.842-.998-6.033-7.14-3.68-4.357-1.37-1.624-3.81-4.506a1.159 1.159 0 0 1-.218-.358 1.167 1.167 0 0 1-.08-.394v-.08a1.16 1.16 0 0 1 .32-.77c.215-.236.528-.382.873-.382h2.938l1.373 1.626 4.11 4.864 1.37 1.623 3.68 4.357 1.37 1.623Z" clip-rule="evenodd"/><path fill="url(#h)" fill-rule="evenodd" d="M10.677 10.055c-.344 0-.658.145-.872.382-.192.2-.312.473-.32.77v.078c.003.141.03.273.08.395l.01.03a1.12 1.12 0 0 0 .238.358l15.706 18.59v11.38a2.98 2.98 0 0 0 2.08-.838c.003 0 .003 0 .003-.002l.404-.48 13.247-15.682c.017-.017.032-.037.047-.056.072-.09.13-.19.172-.3.054-.133.082-.277.082-.431V11.245c0-.314-.122-.602-.323-.81a1.18 1.18 0 0 0-.872-.38H10.677Z" clip-rule="evenodd"/><path fill="url(#i)" fill-rule="evenodd" d="M10.677 10.055c-.344 0-.658.145-.872.382-.192.2-.312.473-.32.77v.078c.003.141.03.273.08.395l.01.03a1.12 1.12 0 0 0 .238.358l15.706 18.59v11.38a2.98 2.98 0 0 0 2.08-.838c.003 0 .003 0 .003-.002l.404-.48 13.247-15.682c.017-.017.032-.037.047-.056.072-.09.13-.19.172-.3.054-.133.082-.277.082-.431V11.245c0-.314-.122-.602-.323-.81a1.18 1.18 0 0 0-.872-.38H10.677Z" clip-rule="evenodd"/><path fill="url(#j)" fill-rule="evenodd" d="M10.677 10.055c-.344 0-.658.145-.872.382-.192.2-.312.473-.32.77v.078c.003.141.03.273.08.395l.01.03a1.12 1.12 0 0 0 .238.358l15.706 18.59v11.38a2.98 2.98 0 0 0 2.08-.838c.003 0 .003 0 .003-.002l.404-.48 13.247-15.682c.017-.017.032-.037.047-.056.072-.09.13-.19.172-.3.054-.133.082-.277.082-.431V11.245c0-.314-.122-.602-.323-.81a1.18 1.18 0 0 0-.872-.38H10.677Z" clip-rule="evenodd"/><path fill="url(#k)" fill-rule="evenodd" d="M10.677 10.055c-.344 0-.658.145-.872.382-.192.2-.312.473-.32.77v.078c.003.141.03.273.08.395l.01.03a1.12 1.12 0 0 0 .238.358l15.706 18.59v11.38a2.98 2.98 0 0 0 2.08-.838c.003 0 .003 0 .003-.002l.404-.48 13.247-15.682c.017-.017.032-.037.047-.056.072-.09.13-.19.172-.3.054-.133.082-.277.082-.431V11.245c0-.314-.122-.602-.323-.81a1.18 1.18 0 0 0-.872-.38H10.677Z" clip-rule="evenodd"/><path fill="url(#l)" fill-rule="evenodd" d="M10.677 10.055c-.344 0-.658.145-.872.382-.192.2-.312.473-.32.77v.078c.003.141.03.273.08.395l.01.03a1.12 1.12 0 0 0 .238.358l15.706 18.59v11.38a2.98 2.98 0 0 0 2.08-.838c.003 0 .003 0 .003-.002l.404-.48 13.247-15.682c.017-.017.032-.037.047-.056.072-.09.13-.19.172-.3.054-.133.082-.277.082-.431V11.245c0-.314-.122-.602-.323-.81a1.18 1.18 0 0 0-.872-.38H10.677Z" clip-rule="evenodd"/><path fill="url(#m)" fill-rule="evenodd" d="M10.677 10.055c-.344 0-.658.145-.872.382-.192.2-.312.473-.32.77v.078c.003.141.03.273.08.395l.01.03a1.12 1.12 0 0 0 .238.358l15.706 18.59v11.38a2.98 2.98 0 0 0 2.08-.838c.003 0 .003 0 .003-.002l.404-.48 13.247-15.682c.017-.017.032-.037.047-.056.072-.09.13-.19.172-.3.054-.133.082-.277.082-.431V11.245c0-.314-.122-.602-.323-.81a1.18 1.18 0 0 0-.872-.38H10.677Z" clip-rule="evenodd"/><defs><linearGradient id="a" x1="25.52" x2="25.52" y1="1.052" y2="49.862" gradientUnits="userSpaceOnUse"><stop stop-color="#fff"/><stop offset="1" stop-color="#F6F8FC"/></linearGradient><linearGradient id="b" x1="19.169" x2="16.385" y1="28.515" y2="30.705" gradientUnits="userSpaceOnUse"><stop stop-color="#FFA794" stop-opacity=".3"/><stop offset="1" stop-color="#FF9794"/></linearGradient><linearGradient id="c" x1="19.169" x2="16.385" y1="28.515" y2="30.705" gradientUnits="userSpaceOnUse"><stop stop-color="#FFA794" stop-opacity=".3"/><stop offset="1" stop-color="#FF9794"/></linearGradient><linearGradient id="d" x1="18.931" x2="21.915" y1="35.583" y2="32.909" gradientUnits="userSpaceOnUse"><stop stop-color="#FFDFD7"/><stop offset="1" stop-color="#FFDFD7"/></linearGradient><linearGradient id="e" x1="19.169" x2="16.084" y1="22.552" y2="25.641" gradientUnits="userSpaceOnUse"><stop stop-color="#FFA794" stop-opacity=".3"/><stop offset="1" stop-color="#FF9794"/></linearGradient><linearGradient id="f" x1="19.169" x2="16.084" y1="22.552" y2="25.641" gradientUnits="userSpaceOnUse"><stop stop-color="#FFA794" stop-opacity=".3"/><stop offset="1" stop-color="#FF9794"/></linearGradient><linearGradient id="g" x1="19.822" x2="22.961" y1="30.073" y2="26.867" gradientUnits="userSpaceOnUse"><stop stop-color="#FFA694"/><stop offset="1" stop-color="#FFB7A9"/></linearGradient><linearGradient id="h" x1="35.971" x2="14.333" y1="31.436" y2="16.515" gradientUnits="userSpaceOnUse"><stop stop-color="#FF6661"/><stop offset="1" stop-color="#FF7D73"/></linearGradient><linearGradient id="i" x1="35.971" x2="14.333" y1="31.436" y2="16.515" gradientUnits="userSpaceOnUse"><stop stop-color="#FF6661"/><stop offset="1" stop-color="#FF7D73"/></linearGradient><linearGradient id="j" x1="35.971" x2="14.333" y1="31.436" y2="16.515" gradientUnits="userSpaceOnUse"><stop stop-color="#FF6661"/><stop offset="1" stop-color="#FF7D73"/></linearGradient><linearGradient id="k" x1="35.971" x2="14.333" y1="31.436" y2="16.515" gradientUnits="userSpaceOnUse"><stop stop-color="#FF6661"/><stop offset="1" stop-color="#FF7D73"/></linearGradient><linearGradient id="l" x1="35.971" x2="14.333" y1="31.436" y2="16.515" gradientUnits="userSpaceOnUse"><stop stop-color="#FF6661"/><stop offset="1" stop-color="#FF7D73"/></linearGradient><linearGradient id="m" x1="35.971" x2="14.333" y1="31.436" y2="16.515" gradientUnits="userSpaceOnUse"><stop stop-color="#FF6661"/><stop offset="1" stop-color="#FF7D73"/></linearGradient></defs></svg>
